src/pos-icons/chat-sleep.svg

<svg height="24" viewBox="0 0 24 24" width="24" xmlns="http://www.w3.org/2000/svg"><path d="m12 3c-5.5 0-10 3.58-10 8 0 2.13 1.05 4.07 2.75 5.5-.05.6-.42 2.17-2.75 4.5 0 0 3.55 0 6.47-2.5 1.1.32 2.29.5 3.53.5 5.5 0 10-3.58 10-8s-4.5-8-10-8m3 6.3-3.24 3.7h3.24v2h-6v-2.3l3.24-3.7h-3.24v-2h6z"/></svg>

<?xml version="1.0" encoding="UTF-8"?><!DOCTYPE svg PUBLIC "-//W3C//DTD SVG 1.1//EN" "http://www.w3.org/Graphics/SVG/1.1/DTD/svg11.dtd"><svg xmlns="http://www.w3.org/2000/svg" xmlns:xlink="http://www.w3.org/1999/xlink" version="1.1" id="mdi-chat-sleep" width="24" height="24" viewBox="0 0 24 24"><path d="M12 3C6.5 3 2 6.58 2 11C2 13.13 3.05 15.07 4.75 16.5C4.7 17.1 4.33 18.67 2 21C2 21 5.55 21 8.47 18.5C9.57 18.82 10.76 19 12 19C17.5 19 22 15.42 22 11S17.5 3 12 3M15 9.3L11.76 13H15V15H9V12.7L12.24 9H9V7H15V9.3Z" /></svg>
